public/mascots/nj/bunny-128x128.svg

<svg xmlns="http://www.w3.org/2000/svg" width="128" height="128" viewBox="0 0 128 128"><path fill="none" stroke="#00f" stroke-linecap="round" stroke-linejoin="round" stroke-width="3" d="M48 40Q32 16 40 8q16-8 24 16 4 16 0 32"/><path fill="none" stroke="#00f" stroke-linecap="round" stroke-width="2" d="M44 24q4-8 12 0" opacity=".5"/><path fill="none" stroke="#00f" stroke-linecap="round" stroke-width="1.5" d="M46 32q4-4 8 0" opacity=".35"/><path fill="none" stroke="#00f" stroke-linecap="round" stroke-linejoin="round" stroke-width="3" d="m80 48 8-40q8-8 16 0l-8 48"/><path fill="none" stroke="#00f" stroke-linecap="round" stroke-width="2" d="M88 16q8-4 12 0" opacity=".5"/><ellipse cx="64" cy="64" fill="none" stroke="#00f" stroke-width="3" rx="28" ry="24"/><ellipse cx="64" cy="72" fill="none" stroke="#00f" stroke-width="2.5" rx="12" ry="10"/><ellipse cx="64" cy="68" fill="#00f" rx="6" ry="5"/><ellipse cx="50" cy="58" fill="#00f" rx="5" ry="6"/><circle cx="51" cy="57" r="2" fill="#fff"/><ellipse cx="78" cy="58" fill="#00f" rx="5" ry="6"/><circle cx="77" cy="57" r="2" fill="#fff"/><path stroke="#00f" stroke-linecap="round" stroke-width="2" d="m44 52-4-4M84 52l4-4"/><path fill="none" stroke="#00f" stroke-linecap="round" stroke-width="2.5" d="M56 80q8 8 16 0"/><path fill="none" stroke="#00f" stroke-linecap="round" stroke-linejoin="round" stroke-width="3" d="M40 88q0 24 24 28 24-4 24-28"/><path fill="none" stroke="#00f" stroke-linecap="round" stroke-width="1.5" d="M52 96q12 4 24 0" opacity=".4"/><ellipse cx="40" cy="104" fill="none" stroke="#00f" stroke-width="2.5" rx="8" ry="10"/><path stroke="#00f" stroke-width="1.5" d="M36 100v8M40 98v12M44 100v8"/><ellipse cx="88" cy="104" fill="none" stroke="#00f" stroke-width="2.5" rx="8" ry="10"/><path stroke="#00f" stroke-width="1.5" d="M84 100v8M88 98v12M92 100v8"/></svg>

<svg xmlns="http://www.w3.org/2000/svg" viewBox="0 0 128 128" width="128" height="128">
  <!-- Left Ear (floppy) -->
  <path d="M48 40 Q32 16 40 8 Q56 0 64 24 Q68 40 64 56" 
        fill="none" stroke="#0000FF" stroke-width="3" stroke-linecap="round" stroke-linejoin="round"/>
  <path d="M44 24 Q48 16 56 24" fill="none" stroke="#0000FF" stroke-width="2" stroke-linecap="round" opacity="0.5"/>
  <path d="M46 32 Q50 28 54 32" fill="none" stroke="#0000FF" stroke-width="1.5" stroke-linecap="round" opacity="0.35"/>
  
  <!-- Right Ear (upright) -->
  <path d="M80 48 L88 8 Q96 0 104 8 L96 56" 
        fill="none" stroke="#0000FF" stroke-width="3" stroke-linecap="round" stroke-linejoin="round"/>
  <path d="M88 16 Q96 12 100 16" fill="none" stroke="#0000FF" stroke-width="2" stroke-linecap="round" opacity="0.5"/>
  
  <!-- Head -->
  <ellipse cx="64" cy="64" rx="28" ry="24" fill="none" stroke="#0000FF" stroke-width="3"/>
  
  <!-- Face -->
  <ellipse cx="64" cy="72" rx="12" ry="10" fill="none" stroke="#0000FF" stroke-width="2.5"/>
  <ellipse cx="64" cy="68" rx="6" ry="5" fill="#0000FF"/>
  
  <!-- Eyes -->
  <ellipse cx="50" cy="58" rx="5" ry="6" fill="#0000FF"/>
  <circle cx="51" cy="57" r="2" fill="#FFF"/>
  <ellipse cx="78" cy="58" rx="5" ry="6" fill="#0000FF"/>
  <circle cx="77" cy="57" r="2" fill="#FFF"/>
  
  <!-- Eyelashes -->
  <path d="M44 52 L40 48" stroke="#0000FF" stroke-width="2" stroke-linecap="round"/>
  <path d="M84 52 L88 48" stroke="#0000FF" stroke-width="2" stroke-linecap="round"/>
  
  <!-- Mouth -->
  <path d="M56 80 Q64 88 72 80" fill="none" stroke="#0000FF" stroke-width="2.5" stroke-linecap="round"/>
  
  <!-- Body -->
  <path d="M40 88 Q40 112 64 116 Q88 112 88 88" 
        fill="none" stroke="#0000FF" stroke-width="3" stroke-linecap="round" stroke-linejoin="round"/>
  
  <!-- Body detail -->
  <path d="M52 96 Q64 100 76 96" fill="none" stroke="#0000FF" stroke-width="1.5" stroke-linecap="round" opacity="0.4"/>
  
  <!-- Paws -->
  <ellipse cx="40" cy="104" rx="8" ry="10" fill="none" stroke="#0000FF" stroke-width="2.5"/>
  <line x1="36" y1="100" x2="36" y2="108" stroke="#0000FF" stroke-width="1.5"/>
  <line x1="40" y1="98" x2="40" y2="110" stroke="#0000FF" stroke-width="1.5"/>
  <line x1="44" y1="100" x2="44" y2="108" stroke="#0000FF" stroke-width="1.5"/>
  
  <ellipse cx="88" cy="104" rx="8" ry="10" fill="none" stroke="#0000FF" stroke-width="2.5"/>
  <line x1="84" y1="100" x2="84" y2="108" stroke="#0000FF" stroke-width="1.5"/>
  <line x1="88" y1="98" x2="88" y2="110" stroke="#0000FF" stroke-width="1.5"/>
  <line x1="92" y1="100" x2="92" y2="108" stroke="#0000FF" stroke-width="1.5"/>
</svg>
